Sources/FrostedUI/Resources/Icons.xcassets/compass24.imageset/compass-24.svg

<svg width="24" height="24" viewBox="0 0 24 24" fill="none" xmlns="http://www.w3.org/2000/svg" data-fui-icon="true">
  <path
    d="M12 1.25C17.9371 1.25 22.75 6.06294 22.75 12C22.75 17.9371 17.9371 22.75 12 22.75C6.06294 22.75 1.25 17.9371 1.25 12C1.25 6.06294 6.06294 1.25 12 1.25ZM12 2.75C6.89137 2.75 2.75 6.89137 2.75 12C2.75 17.1086 6.89137 21.25 12 21.25C17.1086 21.25 21.25 17.1086 21.25 12C21.25 6.89137 17.1086 2.75 12 2.75ZM14.8643 7.00781C16.1941 6.50366 17.4963 7.80592 16.9922 9.13574L15.2705 13.6748C14.9914 14.4104 14.4104 14.9914 13.6748 15.2705L9.13574 16.9922C7.80592 17.4963 6.50366 16.1941 7.00781 14.8643L8.72949 10.3252C9.00861 9.58956 9.58956 9.00861 10.3252 8.72949L14.8643 7.00781ZM15.3955 8.41016L10.8574 10.1318C10.523 10.2587 10.2587 10.523 10.1318 10.8574L8.41016 15.3955C8.36429 15.5164 8.48358 15.6357 8.60449 15.5898L13.1426 13.8682C13.477 13.7413 13.7413 13.477 13.8682 13.1426L15.5898 8.60449C15.6357 8.48358 15.5164 8.36429 15.3955 8.41016Z"
    fill="currentColor"
  />
</svg>

<svg xmlns="http://www.w3.org/2000/svg" width="24" height="24" fill="none" data-fui-icon="true" viewBox="0 0 24 24"><path fill="currentColor" d="M12 1.25c5.937 0 10.75 4.813 10.75 10.75S17.937 22.75 12 22.75 1.25 17.937 1.25 12 6.063 1.25 12 1.25m0 1.5a9.25 9.25 0 1 0 0 18.5 9.25 9.25 0 0 0 0-18.5m2.864 4.258c1.33-.504 2.632.798 2.128 2.128l-1.722 4.539a2.75 2.75 0 0 1-1.595 1.595l-4.54 1.722c-1.33.504-2.631-.798-2.127-2.128l1.721-4.539a2.75 2.75 0 0 1 1.596-1.596zm.531 1.402-4.538 1.722a1.25 1.25 0 0 0-.725.725L8.41 15.396a.15.15 0 0 0 .194.194l4.539-1.722c.334-.127.598-.391.725-.725l1.722-4.539a.15.15 0 0 0-.194-.194"/></svg>
